icons-rebrand/svg/assign-privilege-regular.svg

<svg width="32" height="32" viewBox="0 0 32 32" fill="none" xmlns="http://www.w3.org/2000/svg">
<path d="M13.53 22.47L8.53 17.47C8.4604 17.4004 8.37777 17.3452 8.28683 17.3075C8.1959 17.2699 8.09843 17.2505 8 17.2505C7.90157 17.2505 7.8041 17.2699 7.71317 17.3075C7.62223 17.3452 7.5396 17.4004 7.47 17.47C7.4004 17.5396 7.34519 17.6222 7.30752 17.7132C7.26985 17.8041 7.25047 17.9016 7.25047 18C7.25047 18.0985 7.26985 18.1959 7.30752 18.2869C7.34519 18.3778 7.4004 18.4604 7.47 18.53L11.19 22.25H3C2.80109 22.25 2.61032 22.329 2.46967 22.4697C2.32902 22.6103 2.25 22.8011 2.25 23C2.25 23.1989 2.32902 23.3897 2.46967 23.5304C2.61032 23.671 2.80109 23.75 3 23.75H11.19L7.47 27.47C7.33752 27.6122 7.2654 27.8002 7.26883 27.9945C7.27225 28.1888 7.35097 28.3742 7.48838 28.5116C7.62579 28.6491 7.81118 28.7278 8.00548 28.7312C8.19978 28.7346 8.38783 28.6625 8.53 28.53L13.53 23.53C13.5997 23.4605 13.6549 23.3778 13.6926 23.2869C13.7303 23.196 13.7498 23.0985 13.7498 23C13.7498 22.9016 13.7303 22.8041 13.6926 22.7131C13.6549 22.6222 13.5997 22.5396 13.53 22.47Z" fill="#0F0F0F"/>
<path d="M21.4099 13.7432C22.5404 13.0098 23.4036 11.9307 23.8707 10.6667C24.3379 9.40277 24.384 8.02167 24.0023 6.72934C23.6205 5.43702 22.8313 4.30269 21.7523 3.49547C20.6733 2.68825 19.3623 2.25139 18.0148 2.25C16.6672 2.24862 15.3553 2.68279 14.2747 3.48779C13.194 4.29279 12.4025 5.42549 12.018 6.71703C11.6336 8.00857 11.6769 9.38976 12.1415 10.6547C12.606 11.9196 13.467 13.0005 14.5959 13.7362C13.5459 14.0362 12.5419 14.4742 11.6099 15.0422C11.4437 15.1474 11.3254 15.3136 11.2805 15.5052C11.2356 15.6967 11.2678 15.8982 11.3702 16.0662C11.4725 16.2342 11.6367 16.3553 11.8275 16.4034C12.0182 16.4515 12.2202 16.4227 12.3899 16.3232C14.0808 15.2955 16.0222 14.7537 18.0009 14.7572C23.5569 14.7572 28.2509 19.0252 28.2509 24.0772C28.2382 24.4434 28.1426 24.802 27.9713 25.1259C27.8 25.4498 27.5575 25.7306 27.2619 25.9472C25.0029 27.8772 19.2309 28.7612 14.1159 27.9572C13.9197 27.9291 13.7202 27.9787 13.56 28.0954C13.3997 28.2122 13.2914 28.3868 13.2579 28.5822C13.2427 28.6795 13.2468 28.7789 13.27 28.8746C13.2931 28.9704 13.3349 29.0606 13.393 29.1402C13.451 29.2198 13.5241 29.2871 13.6082 29.3384C13.6923 29.3898 13.7856 29.424 13.8829 29.4392C15.2379 29.6462 16.6059 29.7482 17.9769 29.7442C21.9109 29.7442 26.0669 28.9422 28.2369 27.0882C28.6965 26.7298 29.0708 26.2737 29.3326 25.753C29.5944 25.2323 29.7373 24.6599 29.7509 24.0772C29.7509 19.2982 26.1789 15.1252 21.4109 13.7432H21.4099ZM13.2599 8.50723C13.2599 7.88345 13.3828 7.26578 13.6215 6.68949C13.8602 6.11319 14.2101 5.58956 14.6512 5.14848C15.0923 4.7074 15.6159 4.35752 16.1922 4.11881C16.7685 3.8801 17.3862 3.75723 18.0099 3.75723C18.6337 3.75723 19.2514 3.8801 19.8277 4.11881C20.404 4.35752 20.9276 4.7074 21.3687 5.14848C21.8098 5.58956 22.1597 6.11319 22.3984 6.68949C22.6371 7.26578 22.7599 7.88345 22.7599 8.50723C22.7599 9.76701 22.2595 10.9752 21.3687 11.866C20.4779 12.7568 19.2697 13.2572 18.0099 13.2572C16.7502 13.2572 15.542 12.7568 14.6512 11.866C13.7604 10.9752 13.2599 9.76701 13.2599 8.50723Z" fill="#0F0F0F"/>
</svg>

<svg width="32" height="32" viewBox="0 0 32 32" fill="none" xmlns="http://www.w3.org/2000/svg"><path d="M13.53 22.47l-5-5a.749.749 0 1 0-1.06 1.06l3.72 3.72H3a.75.75 0 1 0 0 1.5h8.19l-3.72 3.72a.75.75 0 0 0 1.06 1.06l5-5a.749.749 0 0 0 0-1.06z" fill="#0F0F0F"/><path d="M21.41 13.743a6.25 6.25 0 1 0-6.814-.007c-1.05.3-2.054.738-2.986 1.306a.75.75 0 0 0 .78 1.281 10.766 10.766 0 0 1 5.611-1.566c5.556 0 10.25 4.268 10.25 9.32a2.423 2.423 0 0 1-.989 1.87c-2.259 1.93-8.031 2.814-13.146 2.01a.761.761 0 0 0-.858.625.75.75 0 0 0 .625.857c1.355.207 2.723.309 4.094.305 3.934 0 8.09-.802 10.26-2.656a3.935 3.935 0 0 0 1.514-3.011c0-4.779-3.572-8.952-8.34-10.334zM13.26 8.507a4.75 4.75 0 1 1 9.5 0 4.75 4.75 0 0 1-9.5 0z" fill="#0F0F0F"/></svg>
